X: 4
T: The Steampacket
R: reel
M: 4/4
L: 1/8
K: Gmaj
| ~G3B AGFD | A~G3 Addc | A~G3 AGFD | =FEFG ABcz |A~G3 AGFD | A~G3 Addc | A~G3 AGFD | =FEFG ABc^c |d~g3 a~g3 | d2eg fdcA | d~g3 a~g3 | dcde fdcA |d~g3 a~g3 | abag ~f3g | abge fd(3edc | d2eg fdcA |


Tune 690	Setting 13740

